R/robusta.dev logo.svg

<?xml version="1.0" ?>
<svg xmlns="http://www.w3.org/2000/svg" role="img" viewBox="-4.77 -5.52 287.30 59.30">
	<g clip-path="url(#clip0_204_66)">
		<path fill="#4CD7A4" fill-rule="evenodd" d="M22.5662.47888L9.94326 5.70743a6.2907 6.2907 0 0 0-3.40465 3.40466L1.31005 21.735c-.6385 1.5414-.6385 3.2734 0 4.8149l5.22856 12.6229c.6385 1.5415 1.86314 2.7662 3.40465 3.4047L22.5662 47.806c1.5414.6385 3.2734.6385 4.8149 0l12.6229-5.2285c1.5414-.6385 2.7662-1.8632 3.4047-3.4047l5.2285-12.6229c.6385-1.5415.6385-3.2735 0-4.8149L43.4087 9.11209c-.6385-1.54152-1.8633-2.76616-3.4047-3.40466L27.3811.47888c-1.5415-.6385-3.2735-.6385-4.8149 0zM28.431 32.5549l5.8367 5.8366c-5.6142 3.67-12.921 3.6797-18.544.0288l5.8446-5.8443c2.197.886 4.6701.8789 6.8627-.0211zM10.7244 14.8486l5.8368 5.8368c-.9307 2.2669-.9065 4.8338.0722 7.0853l-5.8121 5.8121c-3.776-5.6475-3.80835-13.0564-.0969-18.7342zm28.4358 18.6828l-5.8205-5.8207c.946-2.2198.9685-4.7394.0675-6.9736l5.8443-5.8445c3.6714 5.6547 3.641 13.0123-.0913 18.6388zM34.4141 9.99008l-5.8122 5.81222c-2.2885-.9949-4.9028-1.0034-7.1968-.0258l-5.8207-5.82047c5.69-3.77452 13.1504-3.76317 18.8297.03405z" clip-rule="evenodd"/>
		<mask id="a" style="mask-type:alpha" width="50" height="49" x="0" y="0" maskUnits="userSpaceOnUse">
			<path fill="#fff" d="M22.5662.47888c1.5414-.6385 3.2734-.6385 4.8149 0L40.004 5.70743c1.5414.6385 2.7662 1.86314 3.4047 3.40466L48.6372 21.735c.6385 1.5414.6385 3.2734 0 4.8148l-5.2285 12.623c-.6385 1.5415-1.8633 2.7662-3.4047 3.4047L27.3811 47.806c-1.5415.6385-3.2735.6385-4.8149 0L9.94326 42.5775c-1.54151-.6385-2.76615-1.8632-3.40465-3.4047l-5.22856-12.623c-.6385-1.5414-.6385-3.2734 0-4.8148L6.53861 9.11209a6.2907 6.2907 0 0 1 3.40465-3.40466L22.5662.47888zM28.431 32.5549c-2.1926.9-4.6657.9071-6.8627.0211l-5.8446 5.8443c5.623 3.6509 12.9298 3.6412 18.544-.0288l-5.8367-5.8366zM10.7244 14.8486c-3.71145 5.6778-3.6791 13.0866.0969 18.7342l5.8121-5.8121c-.9787-2.2515-1.0029-4.8184-.0723-7.0853l-5.8367-5.8368zm28.5271.044l-5.8443 5.8445c.9009 2.2342.8785 4.7538-.0675 6.9736l5.8205 5.8207c3.7322-5.6265 3.7627-12.9841.0913-18.6388zM34.414 9.99008c-5.6792-3.79722-13.1396-3.80857-18.8296-.03405l5.8207 5.82047c2.294-.9777 4.9083-.9691 7.1968.0257l5.8121-5.81212z"/>
		</mask>
		<g mask="url(#a)">
			<path fill="#56F5CA" fill-rule="evenodd" d="M.59815 48.6774H49.5087V-.23315H.59815V48.6774z" clip-rule="evenodd"/>
		</g>
	</g>
	<path fill="#0F1A2F" d="M63.6353 33.9736v-16.384h5.84v2.32c.6506-.896 1.424-1.5893 2.32-2.08.896-.5013 1.84-.752 2.832-.752.608 0 1.2426.096 1.904.288.6613.192 1.2106.4427 1.648.752l-2.432 4.912c-.384-.2666-.832-.48-1.344-.64-.512-.1706-.9867-.256-1.424-.256-.5974 0-1.168.1547-1.712.464-.5334.3094-.9654.7147-1.296 1.216-.3307.4907-.496 1.024-.496 1.6v8.56h-5.84zm24.804.512c-1.8454 0-3.5094-.368-4.992-1.104-1.4827-.7466-2.656-1.7706-3.52-3.072-.864-1.312-1.296-2.8213-1.296-4.528 0-1.7066.432-3.2106 1.296-4.512.864-1.312 2.0373-2.336 3.52-3.072 1.4826-.7466 3.1466-1.12 4.992-1.12 1.8453 0 3.5093.3734 4.992 1.12 1.4826.736 2.656 1.76 3.52 3.072.864 1.3014 1.296 2.8054 1.296 4.512 0 1.7067-.432 3.216-1.296 4.528-.864 1.3014-2.0374 2.3254-3.52 3.072-1.4827.736-3.1467 1.104-4.992 1.104zm0-4.96c.6826 0 1.3013-.16 1.856-.48.5653-.32 1.0133-.7573 1.344-1.312.3306-.5653.496-1.216.496-1.952s-.1654-1.3866-.496-1.952c-.3307-.5653-.7787-1.0026-1.344-1.312-.5547-.32-1.1734-.48-1.856-.48-.6827 0-1.3067.16-1.872.48-.5547.3094-.9974.7467-1.328 1.312-.3307.5654-.496 1.216-.496 1.952s.1653 1.3867.496 1.952c.3306.5547.7733.992 1.328 1.312.5653.32 1.1893.48 1.872.48zm24.8967 4.96c-1.013 0-1.984-.192-2.912-.576-.917-.384-1.744-.928-2.48-1.632v1.696h-5.84V6.45363h5.84V19.0936c.64-.64 1.413-1.136 2.32-1.488.917-.352 1.893-.528 2.928-.528 1.579 0 2.987.384 4.224 1.152 1.237.7574 2.208 1.792 2.912 3.104.704 1.312 1.056 2.7947 1.056 4.448 0 1.7067-.368 3.216-1.104 4.528-.725 1.312-1.696 2.336-2.912 3.072-1.216.736-2.56 1.104-4.032 1.104zm-1.792-4.944c.725 0 1.36-.16 1.904-.48.555-.3306.987-.7733 1.296-1.328.32-.5653.48-1.2.48-1.904 0-.736-.165-1.3866-.496-1.952-.32-.576-.757-1.0293-1.312-1.36-.544-.3306-1.173-.496-1.888-.496-.704 0-1.339.1654-1.904.496-.555.3307-.997.7787-1.328 1.344-.32.5654-.48 1.216-.48 1.952 0 .704.16 1.3387.48 1.904.32.5654.757 1.0134 1.312 1.344.565.32 1.211.48 1.936.48zm22.495 4.944c-3.179 0-5.472-.6026-6.88-1.808-1.408-1.2053-2.112-3.1626-2.112-5.872v-9.216h5.84v7.776c0 1.6107.235 2.7467.704 3.408.48.6507 1.296.976 2.448.976 1.163 0 1.979-.3253 2.448-.976.469-.6613.704-1.7973.704-3.408v-7.776h5.84v9.216c0 2.7094-.704 4.6667-2.112 5.872-1.408 1.2054-3.701 1.808-6.88 1.808zm18.599 0c-1.397 0-2.656-.1813-3.776-.544-1.109-.3626-2.053-.896-2.832-1.6l2.368-3.984c.736.5974 1.461 1.056 2.176 1.376.725.3094 1.419.464 2.08.464.32 0 .587-.0426.8-.128.213-.0853.373-.2133.48-.384.117-.1706.176-.384.176-.64 0-.3413-.107-.608-.32-.8-.203-.2026-.533-.4-.992-.592-.448-.192-1.035-.4373-1.76-.736-.661-.288-1.285-.608-1.872-.96-.587-.352-1.067-.8-1.44-1.344-.363-.544-.544-1.2373-.544-2.08 0-1.0666.304-2.0053.912-2.816.608-.8213 1.445-1.4613 2.512-1.92 1.077-.4586 2.32-.688 3.728-.688.779 0 1.627.1014 2.544.304.928.192 1.963.4907 3.104.896l-1.888 3.824c-1.515-.7466-2.752-1.12-3.712-1.12-.512 0-.912.096-1.2.288-.288.192-.432.432-.432.72 0 .3094.192.5974.576.864.395.256.864.4854 1.408.688.544.2027 1.035.384 1.472.544.768.2667 1.456.5814 2.064.944.608.3627 1.088.8427 1.44 1.44.352.5867.528 1.3654.528 2.336 0 1.216-.299 2.2454-.896 3.088-.587.832-1.445 1.4667-2.576 1.904-1.131.4374-2.507.656-4.128.656zm17.721 0c-1.77 0-3.152-.5546-4.144-1.664-.992-1.12-1.488-2.6826-1.488-4.688v-6.112h-2.384v-4.432h2.384v-6.144h5.84v6.144h3.424v4.432h-3.424v5.68c0 .512.102.9014.304 1.168.214.2667.523.4.928.4.47 0 .934-.1706 1.392-.512l1.456 4.688c-.618.32-1.306.5707-2.064.752-.757.192-1.498.288-2.224.288zm14.951 0c-1.504 0-2.869-.3733-4.096-1.12-1.226-.7573-2.202-1.792-2.928-3.104-.725-1.3226-1.088-2.8266-1.088-4.512 0-1.632.347-3.0986 1.04-4.4.694-1.312 1.648-2.352 2.864-3.12 1.216-.768 2.619-1.152 4.208-1.152 1.035 0 2.016.176 2.944.528.939.352 1.734.848 2.384 1.488v-1.504h5.84v16.384h-5.84v-1.696c-.768.7254-1.6 1.2747-2.496 1.648-.885.3734-1.829.56-2.832.56zm1.76-4.944c.726 0 1.366-.16 1.92-.48.555-.3306.987-.7786 1.296-1.344.31-.5653.464-1.2106.464-1.936 0-.7253-.16-1.3706-.48-1.936-.309-.5653-.741-1.008-1.296-1.328-.554-.3306-1.189-.496-1.904-.496-.704 0-1.338.1654-1.904.496-.554.32-.997.7627-1.328 1.328-.32.5654-.48 1.2107-.48 1.936 0 .7147.16 1.36.48 1.936.32.5654.758 1.0134 1.312 1.344.566.32 1.206.48 1.92.48zm18.752 4.944c-.693 0-1.328-.1706-1.904-.512-.565-.3306-1.019-.7786-1.36-1.344-.331-.576-.496-1.2106-.496-1.904 0-.6933.165-1.3226.496-1.888.341-.576.795-1.0293 1.36-1.36.576-.3413 1.211-.512 1.904-.512.693 0 1.323.1707 1.888.512.576.3307 1.029.784 1.36 1.36.341.5654.512 1.1947.512 1.888 0 .6934-.171 1.328-.512 1.904-.331.5654-.784 1.0134-1.36 1.344-.565.3414-1.195.512-1.888.512zm16.112 0c-1.472 0-2.816-.368-4.032-1.104-1.216-.736-2.192-1.76-2.928-3.072-.726-1.312-1.088-2.8213-1.088-4.528 0-1.6533.352-3.136 1.056-4.448.704-1.312 1.669-2.3466 2.896-3.104 1.237-.768 2.65-1.152 4.24-1.152 1.034 0 2.005.176 2.912.528.906.352 1.685.848 2.336 1.488V6.45363h5.84V33.9736h-5.84v-1.696c-.736.704-1.568 1.248-2.496 1.632-.918.384-1.883.576-2.896.576zm1.792-4.944c.725 0 1.365-.16 1.92-.48.565-.3306 1.002-.7786 1.312-1.344.32-.5653.48-1.2.48-1.904 0-.736-.16-1.3866-.48-1.952-.32-.5653-.758-1.0133-1.312-1.344-.555-.3306-1.19-.496-1.904-.496-.704 0-1.334.1654-1.888.496-.555.3307-.998.784-1.328 1.36-.32.5654-.48 1.216-.48 1.952 0 .704.154 1.3387.464 1.904.32.5547.757.9974 1.312 1.328.554.32 1.189.48 1.904.48zm22.768 4.944c-1.792 0-3.403-.384-4.832-1.152-1.43-.768-2.56-1.808-3.392-3.12-.822-1.312-1.232-2.7946-1.232-4.448 0-1.2266.234-2.3626.704-3.408.469-1.056 1.125-1.9786 1.968-2.768.842-.8 1.824-1.4186 2.944-1.856 1.13-.4373 2.352-.656 3.664-.656 1.706 0 3.2.3574 4.48 1.072 1.29.704 2.298 1.6907 3.024 2.96.725 1.2587 1.088 2.72 1.088 4.384 0 .1387-.006.2667-.016.384 0 .1174-.016.352-.048.704h-11.792c0 .6614.154 1.2374.464 1.728.309.4907.746.8747 1.312 1.152.565.2667 1.232.4 2 .4.714 0 1.338-.1333 1.872-.4.533-.2773 1.098-.7306 1.696-1.36l4.192 2.096c-.768 1.344-1.872 2.3947-3.312 3.152-1.43.7574-3.024 1.136-4.784 1.136zm-3.264-10.848h5.952c-.075-.5333-.246-.9813-.512-1.344-.267-.3626-.608-.6346-1.024-.816-.416-.192-.902-.288-1.456-.288-.576 0-1.083.096-1.52.288-.427.192-.763.4694-1.008.832-.246.3627-.39.8054-.432 1.328zm21.081 10.336l-8.832-16.384h6.896l3.904 8.752 3.92-8.752h6.896l-8.848 16.384h-3.936z"/>
	<defs>
		<clipPath id="clip0_204_66">
			<path fill="#fff" d="M0 0h48.285v48.285H0z" transform="translate(.831)"/>
		</clipPath>
	</defs>
</svg>

<?xml version="1.0" ?>
<svg xmlns="http://www.w3.org/2000/svg" viewBox="0 0 278 49" fill="none">
	<g clip-path="url(#clip0_204_66)">
		<path fill-rule="evenodd" clip-rule="evenodd" d="M22.5662 0.478876L9.94326 5.70743C8.40175 6.34593 7.17711 7.57057 6.53861 9.11209L1.31005 21.735C0.671552 23.2764 0.671552 25.0084 1.31005 26.5499L6.53861 39.1728C7.17711 40.7143 8.40175 41.939 9.94326 42.5775L22.5662 47.806C24.1076 48.4445 25.8396 48.4445 27.3811 47.806L40.004 42.5775C41.5454 41.939 42.7702 40.7143 43.4087 39.1728L48.6372 26.5499C49.2757 25.0084 49.2757 23.2764 48.6372 21.735L43.4087 9.11209C42.7702 7.57057 41.5454 6.34593 40.004 5.70743L27.3811 0.478876C25.8396 -0.159625 24.1076 -0.159625 22.5662 0.478876ZM28.431 32.5549L34.2677 38.3915C28.6535 42.0615 21.3467 42.0712 15.7237 38.4203L21.5683 32.576C23.7653 33.462 26.2384 33.4549 28.431 32.5549ZM10.7244 14.8486L16.5612 20.6854C15.6305 22.9523 15.6547 25.5192 16.6334 27.7707L10.8213 33.5828C7.0453 27.9353 7.01295 20.5264 10.7244 14.8486ZM39.1602 33.5314L33.3397 27.7107C34.2857 25.4909 34.3082 22.9713 33.4072 20.7371L39.2515 14.8926C42.9229 20.5473 42.8925 27.9049 39.1602 33.5314ZM34.4141 9.99008L28.6019 15.8023C26.3134 14.8074 23.6991 14.7989 21.4051 15.7765L15.5844 9.95603C21.2744 6.18151 28.7348 6.19286 34.4141 9.99008Z" fill="#4CD7A4"/>
		<mask id="mask0_204_66" maskUnits="userSpaceOnUse" x="0" y="0" width="50" height="49" mask-type="alpha">
			<path d="M22.5662 0.478876C24.1076 -0.159625 25.8396 -0.159625 27.3811 0.478876L40.004 5.70743C41.5454 6.34593 42.7702 7.57057 43.4087 9.11209L48.6372 21.735C49.2757 23.2764 49.2757 25.0084 48.6372 26.5498L43.4087 39.1728C42.7702 40.7143 41.5454 41.939 40.004 42.5775L27.3811 47.806C25.8396 48.4445 24.1076 48.4445 22.5662 47.806L9.94326 42.5775C8.40175 41.939 7.17711 40.7143 6.53861 39.1728L1.31005 26.5498C0.671552 25.0084 0.671552 23.2764 1.31005 21.735L6.53861 9.11209C7.17711 7.57057 8.40175 6.34593 9.94326 5.70743L22.5662 0.478876ZM28.431 32.5549C26.2384 33.4549 23.7653 33.462 21.5683 32.576L15.7237 38.4203C21.3467 42.0712 28.6535 42.0615 34.2677 38.3915L28.431 32.5549ZM10.7244 14.8486C7.01295 20.5264 7.0453 27.9352 10.8213 33.5828L16.6334 27.7707C15.6547 25.5192 15.6305 22.9523 16.5611 20.6854L10.7244 14.8486ZM39.2515 14.8926L33.4072 20.7371C34.3081 22.9713 34.2857 25.4909 33.3397 27.7107L39.1602 33.5314C42.8924 27.9049 42.9229 20.5473 39.2515 14.8926ZM34.414 9.99008C28.7348 6.19286 21.2744 6.18151 15.5844 9.95603L21.4051 15.7765C23.6991 14.7988 26.3134 14.8074 28.6019 15.8022L34.414 9.99008Z" fill="white"/>
		</mask>
		<g mask="url(#mask0_204_66)">
			<path fill-rule="evenodd" clip-rule="evenodd" d="M0.598145 48.6774H49.5087V-0.233154H0.598145V48.6774Z" fill="#56F5CA"/>
		</g>
	</g>
	<path d="M63.6353 33.9736V17.5896H69.4753V19.9096C70.1259 19.0136 70.8993 18.3203 71.7953 17.8296C72.6913 17.3283 73.6353 17.0776 74.6273 17.0776C75.2353 17.0776 75.8699 17.1736 76.5313 17.3656C77.1926 17.5576 77.7419 17.8083 78.1793 18.1176L75.7473 23.0296C75.3633 22.763 74.9153 22.5496 74.4033 22.3896C73.8913 22.219 73.4166 22.1336 72.9793 22.1336C72.3819 22.1336 71.8113 22.2883 71.2673 22.5976C70.7339 22.907 70.3019 23.3123 69.9713 23.8136C69.6406 24.3043 69.4753 24.8376 69.4753 25.4136V33.9736H63.6353ZM88.4393 34.4856C86.5939 34.4856 84.9299 34.1176 83.4473 33.3816C81.9646 32.635 80.7913 31.611 79.9273 30.3096C79.0633 28.9976 78.6313 27.4883 78.6313 25.7816C78.6313 24.075 79.0633 22.571 79.9273 21.2696C80.7913 19.9576 81.9646 18.9336 83.4473 18.1976C84.9299 17.451 86.5939 17.0776 88.4393 17.0776C90.2846 17.0776 91.9486 17.451 93.4313 18.1976C94.9139 18.9336 96.0873 19.9576 96.9513 21.2696C97.8153 22.571 98.2473 24.075 98.2473 25.7816C98.2473 27.4883 97.8153 28.9976 96.9513 30.3096C96.0873 31.611 94.9139 32.635 93.4313 33.3816C91.9486 34.1176 90.2846 34.4856 88.4393 34.4856ZM88.4393 29.5256C89.1219 29.5256 89.7406 29.3656 90.2953 29.0456C90.8606 28.7256 91.3086 28.2883 91.6393 27.7336C91.9699 27.1683 92.1353 26.5176 92.1353 25.7816C92.1353 25.0456 91.9699 24.395 91.6393 23.8296C91.3086 23.2643 90.8606 22.827 90.2953 22.5176C89.7406 22.1976 89.1219 22.0376 88.4393 22.0376C87.7566 22.0376 87.1326 22.1976 86.5673 22.5176C86.0126 22.827 85.5699 23.2643 85.2393 23.8296C84.9086 24.395 84.7433 25.0456 84.7433 25.7816C84.7433 26.5176 84.9086 27.1683 85.2393 27.7336C85.5699 28.2883 86.0126 28.7256 86.5673 29.0456C87.1326 29.3656 87.7566 29.5256 88.4393 29.5256ZM113.336 34.4856C112.323 34.4856 111.352 34.2936 110.424 33.9096C109.507 33.5256 108.68 32.9816 107.944 32.2776V33.9736H102.104V6.45363H107.944V19.0936C108.584 18.4536 109.357 17.9576 110.264 17.6056C111.181 17.2536 112.157 17.0776 113.192 17.0776C114.771 17.0776 116.179 17.4616 117.416 18.2296C118.653 18.987 119.624 20.0216 120.328 21.3336C121.032 22.6456 121.384 24.1283 121.384 25.7816C121.384 27.4883 121.016 28.9976 120.28 30.3096C119.555 31.6216 118.584 32.6456 117.368 33.3816C116.152 34.1176 114.808 34.4856 113.336 34.4856ZM111.544 29.5416C112.269 29.5416 112.904 29.3816 113.448 29.0616C114.003 28.731 114.435 28.2883 114.744 27.7336C115.064 27.1683 115.224 26.5336 115.224 25.8296C115.224 25.0936 115.059 24.443 114.728 23.8776C114.408 23.3016 113.971 22.8483 113.416 22.5176C112.872 22.187 112.243 22.0216 111.528 22.0216C110.824 22.0216 110.189 22.187 109.624 22.5176C109.069 22.8483 108.627 23.2963 108.296 23.8616C107.976 24.427 107.816 25.0776 107.816 25.8136C107.816 26.5176 107.976 27.1523 108.296 27.7176C108.616 28.283 109.053 28.731 109.608 29.0616C110.173 29.3816 110.819 29.5416 111.544 29.5416ZM134.039 34.4856C130.86 34.4856 128.567 33.883 127.159 32.6776C125.751 31.4723 125.047 29.515 125.047 26.8056V17.5896H130.887V25.3656C130.887 26.9763 131.122 28.1123 131.591 28.7736C132.071 29.4243 132.887 29.7496 134.039 29.7496C135.202 29.7496 136.018 29.4243 136.487 28.7736C136.956 28.1123 137.191 26.9763 137.191 25.3656V17.5896H143.031V26.8056C143.031 29.515 142.327 31.4723 140.919 32.6776C139.511 33.883 137.218 34.4856 134.039 34.4856ZM152.638 34.4856C151.241 34.4856 149.982 34.3043 148.862 33.9416C147.753 33.579 146.809 33.0456 146.03 32.3416L148.398 28.3576C149.134 28.955 149.859 29.4136 150.574 29.7336C151.299 30.043 151.993 30.1976 152.654 30.1976C152.974 30.1976 153.241 30.155 153.454 30.0696C153.667 29.9843 153.827 29.8563 153.934 29.6856C154.051 29.515 154.11 29.3016 154.11 29.0456C154.11 28.7043 154.003 28.4376 153.79 28.2456C153.587 28.043 153.257 27.8456 152.798 27.6536C152.35 27.4616 151.763 27.2163 151.038 26.9176C150.377 26.6296 149.753 26.3096 149.166 25.9576C148.579 25.6056 148.099 25.1576 147.726 24.6136C147.363 24.0696 147.182 23.3763 147.182 22.5336C147.182 21.467 147.486 20.5283 148.094 19.7176C148.702 18.8963 149.539 18.2563 150.606 17.7976C151.683 17.339 152.926 17.1096 154.334 17.1096C155.113 17.1096 155.961 17.211 156.878 17.4136C157.806 17.6056 158.841 17.9043 159.982 18.3096L158.094 22.1336C156.579 21.387 155.342 21.0136 154.382 21.0136C153.87 21.0136 153.47 21.1096 153.182 21.3016C152.894 21.4936 152.75 21.7336 152.75 22.0216C152.75 22.331 152.942 22.619 153.326 22.8856C153.721 23.1416 154.19 23.371 154.734 23.5736C155.278 23.7763 155.769 23.9576 156.206 24.1176C156.974 24.3843 157.662 24.699 158.27 25.0616C158.878 25.4243 159.358 25.9043 159.71 26.5016C160.062 27.0883 160.238 27.867 160.238 28.8376C160.238 30.0536 159.939 31.083 159.342 31.9256C158.755 32.7576 157.897 33.3923 156.766 33.8296C155.635 34.267 154.259 34.4856 152.638 34.4856ZM170.359 34.4856C168.589 34.4856 167.207 33.931 166.215 32.8216C165.223 31.7016 164.727 30.139 164.727 28.1336V22.0216H162.343V17.5896H164.727V11.4456H170.567V17.5896H173.991V22.0216H170.567V27.7016C170.567 28.2136 170.669 28.603 170.871 28.8696C171.085 29.1363 171.394 29.2696 171.799 29.2696C172.269 29.2696 172.733 29.099 173.191 28.7576L174.647 33.4456C174.029 33.7656 173.341 34.0163 172.583 34.1976C171.826 34.3896 171.085 34.4856 170.359 34.4856ZM185.31 34.4856C183.806 34.4856 182.441 34.1123 181.214 33.3656C179.988 32.6083 179.012 31.5736 178.286 30.2616C177.561 28.939 177.198 27.435 177.198 25.7496C177.198 24.1176 177.545 22.651 178.238 21.3496C178.932 20.0376 179.886 18.9976 181.102 18.2296C182.318 17.4616 183.721 17.0776 185.31 17.0776C186.345 17.0776 187.326 17.2536 188.254 17.6056C189.193 17.9576 189.988 18.4536 190.638 19.0936V17.5896H196.478V33.9736H190.638V32.2776C189.87 33.003 189.038 33.5523 188.142 33.9256C187.257 34.299 186.313 34.4856 185.31 34.4856ZM187.07 29.5416C187.796 29.5416 188.436 29.3816 188.99 29.0616C189.545 28.731 189.977 28.283 190.286 27.7176C190.596 27.1523 190.75 26.507 190.75 25.7816C190.75 25.0563 190.59 24.411 190.27 23.8456C189.961 23.2803 189.529 22.8376 188.974 22.5176C188.42 22.187 187.785 22.0216 187.07 22.0216C186.366 22.0216 185.732 22.187 185.166 22.5176C184.612 22.8376 184.169 23.2803 183.838 23.8456C183.518 24.411 183.358 25.0563 183.358 25.7816C183.358 26.4963 183.518 27.1416 183.838 27.7176C184.158 28.283 184.596 28.731 185.15 29.0616C185.716 29.3816 186.356 29.5416 187.07 29.5416ZM205.822 34.4856C205.129 34.4856 204.494 34.315 203.918 33.9736C203.353 33.643 202.899 33.195 202.558 32.6296C202.227 32.0536 202.062 31.419 202.062 30.7256C202.062 30.0323 202.227 29.403 202.558 28.8376C202.899 28.2616 203.353 27.8083 203.918 27.4776C204.494 27.1363 205.129 26.9656 205.822 26.9656C206.515 26.9656 207.145 27.1363 207.71 27.4776C208.286 27.8083 208.739 28.2616 209.07 28.8376C209.411 29.403 209.582 30.0323 209.582 30.7256C209.582 31.419 209.411 32.0536 209.07 32.6296C208.739 33.195 208.286 33.643 207.71 33.9736C207.145 34.315 206.515 34.4856 205.822 34.4856ZM221.934 34.4856C220.462 34.4856 219.118 34.1176 217.902 33.3816C216.686 32.6456 215.71 31.6216 214.974 30.3096C214.248 28.9976 213.886 27.4883 213.886 25.7816C213.886 24.1283 214.238 22.6456 214.942 21.3336C215.646 20.0216 216.611 18.987 217.838 18.2296C219.075 17.4616 220.488 17.0776 222.078 17.0776C223.112 17.0776 224.083 17.2536 224.99 17.6056C225.896 17.9576 226.675 18.4536 227.326 19.0936V6.45363H233.166V33.9736H227.326V32.2776C226.59 32.9816 225.758 33.5256 224.83 33.9096C223.912 34.2936 222.947 34.4856 221.934 34.4856ZM223.726 29.5416C224.451 29.5416 225.091 29.3816 225.646 29.0616C226.211 28.731 226.648 28.283 226.958 27.7176C227.278 27.1523 227.438 26.5176 227.438 25.8136C227.438 25.0776 227.278 24.427 226.958 23.8616C226.638 23.2963 226.2 22.8483 225.646 22.5176C225.091 22.187 224.456 22.0216 223.742 22.0216C223.038 22.0216 222.408 22.187 221.854 22.5176C221.299 22.8483 220.856 23.3016 220.526 23.8776C220.206 24.443 220.046 25.0936 220.046 25.8296C220.046 26.5336 220.2 27.1683 220.51 27.7336C220.83 28.2883 221.267 28.731 221.822 29.0616C222.376 29.3816 223.011 29.5416 223.726 29.5416ZM246.494 34.4856C244.702 34.4856 243.091 34.1016 241.662 33.3336C240.232 32.5656 239.102 31.5256 238.27 30.2136C237.448 28.9016 237.038 27.419 237.038 25.7656C237.038 24.539 237.272 23.403 237.742 22.3576C238.211 21.3016 238.867 20.379 239.71 19.5896C240.552 18.7896 241.534 18.171 242.654 17.7336C243.784 17.2963 245.006 17.0776 246.318 17.0776C248.024 17.0776 249.518 17.435 250.798 18.1496C252.088 18.8536 253.096 19.8403 253.822 21.1096C254.547 22.3683 254.91 23.8296 254.91 25.4936C254.91 25.6323 254.904 25.7603 254.894 25.8776C254.894 25.995 254.878 26.2296 254.846 26.5816H243.054C243.054 27.243 243.208 27.819 243.518 28.3096C243.827 28.8003 244.264 29.1843 244.83 29.4616C245.395 29.7283 246.062 29.8616 246.83 29.8616C247.544 29.8616 248.168 29.7283 248.702 29.4616C249.235 29.1843 249.8 28.731 250.398 28.1016L254.59 30.1976C253.822 31.5416 252.718 32.5923 251.278 33.3496C249.848 34.107 248.254 34.4856 246.494 34.4856ZM243.23 23.6376H249.182C249.107 23.1043 248.936 22.6563 248.67 22.2936C248.403 21.931 248.062 21.659 247.646 21.4776C247.23 21.2856 246.744 21.1896 246.19 21.1896C245.614 21.1896 245.107 21.2856 244.67 21.4776C244.243 21.6696 243.907 21.947 243.662 22.3096C243.416 22.6723 243.272 23.115 243.23 23.6376ZM264.311 33.9736L255.479 17.5896H262.375L266.279 26.3416L270.199 17.5896H277.095L268.247 33.9736H264.311Z" fill="#0F1A2F"/>
	<defs>
		<clipPath id="clip0_204_66">
			<rect width="48.2849" height="48.2849" fill="white" transform="translate(0.831177)"/>
		</clipPath>
	</defs>
</svg>
